X:1
T:Red-Haired Lass, The
R:reel
Z:From Josephine Marsh at Kilfenora 1996. Transcribed by Z:Thom Pratt
S:Nick Howard <nick:nickthefiddle.fsnet.co.uk> tradtunes 2003-1-19
M:4/4
K:A
|:EAAG ~A2 cA | ABcA ~BAFA | EAAG ABce |1 faec BAFA \
                                      :|2 faec ~d2cd ||
[|~e2 ae feae | efae cAcd | ~e2 ae fefg | afec ~d2 cd |
| ~e2 ae feae | efae cAce | ~d2 dB ~c2 cB | AB (3cde afec |]
